!!!OTL@@DE: Rudelsburg
!!!COM: Fesca, Friedrich Ernst
!!!ONB: Heute scheid' ich
!!!ODT: 1822
!!!OMD: M&auml;ssig langsam
!!!LYR: Kugler, Franz
!!!LDT: 1826
!!!OCL: Erk, Ludwig
!!!GCO: Deutscher Liederschatz, Band 1
**kern	**kern	**kern
*staff3	*staff2	*staff1
*Ipiano	*Ipiano	*Ivox
*clefF4	*clefG2	*clefG2
*k[f#]	*k[f#]	*k[f#]
*G:	*G:	*G:
*M3/4	*M3/4	*M3/4
*MM72	*MM72	*MM72
4r	8B/ 8g/L	8g/
.	8d/ 8a/J	8a/
=1	=1	=1
2GG/ 2G/	8g/ 8b/L	4b\
.	8d/	.
.	8g/ 8b/	4b\
.	8d/J	.
4r	8c/ 8a/L	8a/
.	8B/ 8g/J	8g/
=2	=2	=2
2D\	8f#/ 8a/L	4a/
.	8d/	.
.	8f#/ 8a/	4a/
.	8d/J	.
4r	8B/ 8g/L	8g/
.	8d/ 8a/J	8a/
=3	=3	=3
*	*^	*
8G\L	8b/L	8g\L	8b\
8A\J	8cc/J	8d\J	8cc\
4B\	4dd/	8g\	4dd\
.	.	4.d\	.
8F#\L	8a/ 8cc/L	.	(8cc\L
8G\J	8g/ 8b/J	.	8b\J)
*	*v	*v	*
=4	=4	=4
2D\	8f#/ (8a/L	4a/
.	8d/J	.
.	4f#/ 4a/)	4r
4r	4r	8dd\
.	.	8ee\
=5	=5	=5
2DD/ 2D/	8A/ 8f#/L	(8dd\L
.	8d/	8cc\J)
.	8c/ 8f#/	4a/
.	8d/	.
4D\	8c/ 8f#/	8a/
.	8d/J	8a/
=6	=6	=6
2GG/ 2D/	8B/ 8g/L	4b\
.	8d/	.
.	8B/ 8g/	4dd\
.	8d/	.
4D\	8B/ 8g/	8dd\
.	8d/J	8ee\
=7	=7	=7
2DD/ 2D/	8A/ 8f#/L	(8dd\L
.	8d/	8cc\J)
.	8c/ 8f#/	4a/
.	8d/	.
4D\	8c/ 8f#/	8a/
.	8d/J	8a/
=8	=8	=8
2GG/	8B/ 8g/L	4b\
.	8d/	.
.	8B/ 8g/	4dd\
.	8d/J	.
4C/	8c/ 8g/L	8ee\
.	8e/J	8cc\
=9	=9	=9
2D\	8d/ 8g/L	8b\
.	8B/	8dd\
.	8d/ 8g/	4b\
.	8b/J	.
4DD/ 4D/	8c/ 8f#/ 8a/L	(8a/L
.	8B/ 8g/J	8g/J)
=10	=10	=10
4GG/ 4D/	4B/ 4g/	4g/
4r	4r	4r
==	==	==
*-	*-	*-
!!!ENC: Craig Stuart Sapp
!!!END: 2004/06/28/
!!!EFL: 172/651
